icons/1_Primary/H&R Block.svg

<svg width="1024" height="1024" viewBox="0 0 1024 1024" fill="none" xmlns="http://www.w3.org/2000/svg">
<g clip-path="url(#clip0_2_2358)">
<path d="M512 1024C794.77 1024 1024 794.77 1024 512C1024 229.23 794.77 0 512 0C229.23 0 0 229.23 0 512C0 794.77 229.23 1024 512 1024Z" fill="#98DC9A"/>
<path d="M520.49 561.37H508.91V542.86H520.48C525.88 542.86 528.97 546.72 528.97 552.12C528.97 557.52 525.89 561.37 520.49 561.37ZM367 643.14C367.018 642.426 366.89 641.716 366.625 641.053C366.36 640.389 365.963 639.787 365.458 639.282C364.953 638.777 364.351 638.38 363.687 638.115C363.024 637.85 362.314 637.722 361.6 637.74H350.8V649.31H361.6C364.66 649.31 367 647 367 643.14ZM728 296V728H296V296H728ZM485.77 598.4H508.91V579.89H515.85L527.42 599.18H554.42L539.76 575.27C547.47 570.64 552.87 562.16 552.87 551.36C552.87 535.16 542.87 523.59 523.56 523.59H485.76L485.77 598.4ZM394 673.23C394 664.74 388.6 658.57 379.34 656.23C385.51 653.14 389.34 646.97 389.34 639.23C389.34 627.66 380.85 619.94 366.97 619.94H328.4V694.77H367.74C384.71 694.83 394 686.34 394 673.23ZM394.77 524.34H370.83V551.34H351.54V524.34H328.4V599.17H351.54V572.17H370.83V599.17H394.74L394.77 524.34ZM457.26 675.54H427.14V620H404V694.83H457.23L457.26 675.54ZM458.03 599.94H478.86L465.75 583.74C467.876 579.15 468.932 574.138 468.84 569.08V557.51H452.6V568.31L434.86 549C433.32 546.69 431.77 545.14 431.77 542.83C431.77 539.74 434.08 538.2 437.17 538.2C437.884 538.182 438.594 538.31 439.257 538.575C439.921 538.84 440.523 539.237 441.028 539.742C441.533 540.247 441.93 540.849 442.195 541.513C442.46 542.176 442.588 542.886 442.57 543.6V547.46H460.31V542.83C460.31 531.26 450.31 523.54 436.4 523.54C421.74 523.54 411.71 531.25 411.71 542.83C411.687 545.348 412.231 547.839 413.301 550.119C414.37 552.398 415.939 554.408 417.89 556C410.94 559.06 404 566 404 576.8C404 591.46 415.57 601.49 436.4 601.49C442.954 601.462 449.369 599.591 454.91 596.09L458.03 599.94ZM535.17 652.4C535.17 632.34 522.83 618.46 499.68 618.46C476.53 618.46 464.19 632.35 464.19 652.4V661.66C464.19 681.72 476.53 695.6 499.68 695.6C522.83 695.6 535.17 681.71 535.17 661.66V652.4ZM566.8 663.2V651.63C566.8 643.14 570.66 638.52 578.37 638.52C586.86 638.52 589.94 643.92 589.94 649.32H612.31C611.54 632.32 599.97 618.46 579.14 618.46C555.23 618.46 543.65 632.35 543.65 652.4V662.4C543.65 682.46 555.22 696.34 579.14 696.34C599.97 696.34 612.31 682.45 612.31 665.48H589.91C589.14 670.88 586.82 676.28 578.34 676.28C570.63 676.31 566.77 670.91 566.77 663.2H566.8ZM693.31 694.83L671.71 653.94L691.74 620H665.51L650.08 646.23H648.54V620H625.4V694.83H648.54V664H650.08L665.51 694.86L693.31 694.83ZM366.2 665.51H350.77V677.85H366.2C367.836 677.85 369.406 677.2 370.563 676.043C371.72 674.886 372.37 673.316 372.37 671.68C372.37 670.044 371.72 668.474 370.563 667.317C369.406 666.16 367.836 665.51 366.2 665.51ZM499.66 638.51C491.95 638.51 487.32 643.14 487.32 651.62V664C487.32 672.49 491.95 677.11 499.66 677.11C507.37 677.11 512 672.46 512 664V651.63C512 643.14 507.37 638.51 499.66 638.51ZM424.83 575.25C424.83 582.19 431.77 585.25 437.17 585.25C440.26 585.25 443.34 584.48 444.88 582.94C442.57 580.63 430.22 566.74 430.22 566.74C428.612 567.51 427.253 568.718 426.3 570.225C425.347 571.732 424.837 573.477 424.83 575.26V575.25Z" fill="white"/>
</g>
<defs>
<clipPath id="clip0_2_2358">
<rect width="1024" height="1024" fill="white"/>
</clipPath>
</defs>
</svg>

<svg xmlns="http://www.w3.org/2000/svg" width="1024" height="1024" fill="none">
   <g clip-path="url(#a)">
      <path fill="#98DC9A" d="M512 1024c282.77 0 512-229.23 512-512S794.77 0 512 0 0 229.23 0 512s229.23 512 512 512Z"/>
      <path fill="#fff" d="M520.49 561.37h-11.58v-18.51h11.57c5.4 0 8.49 3.86 8.49 9.26s-3.08 9.25-8.48 9.25ZM367 643.14a5.266 5.266 0 0 0-1.542-3.858 5.262 5.262 0 0 0-3.858-1.542h-10.8v11.57h10.8c3.06 0 5.4-2.31 5.4-6.17ZM728 296v432H296V296h432ZM485.77 598.4h23.14v-18.51h6.94l11.57 19.29h27l-14.66-23.91c7.71-4.63 13.11-13.11 13.11-23.91 0-16.2-10-27.77-29.31-27.77h-37.8l.01 74.81ZM394 673.23c0-8.49-5.4-14.66-14.66-17 6.17-3.09 10-9.26 10-17 0-11.57-8.49-19.29-22.37-19.29H328.4v74.83h39.34c16.97.06 26.26-8.43 26.26-21.54Zm.77-148.89h-23.94v27h-19.29v-27H328.4v74.83h23.14v-27h19.29v27h23.91l.03-74.83Zm62.49 151.2h-30.12V620H404v74.83h53.23l.03-19.29Zm.77-75.6h20.83l-13.11-16.2a33.432 33.432 0 0 0 3.09-14.66v-11.57H452.6v10.8L434.86 549c-1.54-2.31-3.09-3.86-3.09-6.17 0-3.09 2.31-4.63 5.4-4.63a5.266 5.266 0 0 1 3.858 1.542 5.262 5.262 0 0 1 1.542 3.858v3.86h17.74v-4.63c0-11.57-10-19.29-23.91-19.29-14.66 0-24.69 7.71-24.69 19.29a16.796 16.796 0 0 0 6.18 13.17c-6.95 3.06-13.89 10-13.89 20.8 0 14.66 11.57 24.69 32.4 24.69a34.934 34.934 0 0 0 18.51-5.4l3.12 3.85Zm77.14 52.46c0-20.06-12.34-33.94-35.49-33.94-23.15 0-35.49 13.89-35.49 33.94v9.26c0 20.06 12.34 33.94 35.49 33.94 23.15 0 35.49-13.89 35.49-33.94v-9.26Zm31.63 10.8v-11.57c0-8.49 3.86-13.11 11.57-13.11 8.49 0 11.57 5.4 11.57 10.8h22.37c-.77-17-12.34-30.86-33.17-30.86-23.91 0-35.49 13.89-35.49 33.94v10c0 20.06 11.57 33.94 35.49 33.94 20.83 0 33.17-13.89 33.17-30.86h-22.4c-.77 5.4-3.09 10.8-11.57 10.8-7.71.03-11.57-5.37-11.57-13.08h.03Zm126.51 31.63-21.6-40.89L691.74 620h-26.23l-15.43 26.23h-1.54V620H625.4v74.83h23.14V664h1.54l15.43 30.86 27.8-.03ZM366.2 665.51h-15.43v12.34h15.43a6.171 6.171 0 0 0 0-12.34Zm133.46-27c-7.71 0-12.34 4.63-12.34 13.11V664c0 8.49 4.63 13.11 12.34 13.11S512 672.46 512 664v-12.37c0-8.49-4.63-13.12-12.34-13.12Zm-74.83-63.26c0 6.94 6.94 10 12.34 10 3.09 0 6.17-.77 7.71-2.31-2.31-2.31-14.66-16.2-14.66-16.2a9.486 9.486 0 0 0-5.39 8.52v-.01Z"/>
   </g>
   <defs>
      <clipPath id="a">
         <path fill="#fff" d="M0 0h1024v1024H0z"/>
      </clipPath>
   </defs>
</svg>
